content/_includes/_assets/img/logo.svg

<?xml version="1.0" encoding="iso-8859-1"?>
<!-- Generator: Adobe Illustrator 19.2.1, SVG Export Plug-In . SVG Version: 6.00 Build 0)  -->
<svg version="1.1" id="Layer_1" xmlns="http://www.w3.org/2000/svg" xmlns:xlink="http://www.w3.org/1999/xlink" x="0px" y="0px"
	 viewBox="0 0 117.5 64.125" style="enable-background:new 0 0 117.5 64.125;" xml:space="preserve">
<g>
	<g>
		<path style="fill:#AC5CA0;" d="M29.042,64.125c-0.64,0-1.28-0.244-1.768-0.732L14.149,50.268c-0.977-0.977-0.977-2.559,0-3.535
			c0.976-0.977,2.56-0.977,3.535,0L30.81,59.857c0.977,0.977,0.977,2.559,0,3.535C30.322,63.881,29.682,64.125,29.042,64.125z"/>
		<path style="fill:#AC5CA0;" d="M88.458,64.125c-0.64,0-1.279-0.244-1.768-0.732c-0.977-0.977-0.977-2.559,0-3.535l13.125-13.125
			c0.977-0.977,2.559-0.977,3.535,0s0.977,2.559,0,3.535L90.226,63.393C89.738,63.881,89.098,64.125,88.458,64.125z"/>
		<path style="fill:#AC5CA0;" d="M58.75,63.5c-0.663,0-1.299-0.264-1.768-0.732L17.667,23.452L4.268,36.851
			c-0.976,0.977-2.56,0.977-3.535,0c-0.977-0.977-0.977-2.559,0-3.535l15.167-15.167c0.976-0.977,2.56-0.977,3.535,0L58.75,57.465
			l39.316-39.316c0.977-0.977,2.559-0.977,3.535,0l15.167,15.167c0.977,0.977,0.977,2.559,0,3.535s-2.559,0.977-3.535,0
			L99.833,23.452L60.518,62.768C60.049,63.236,59.413,63.5,58.75,63.5z"/>
		<path style="fill:#AC5CA0;" d="M73.917,20.167c-0.64,0-1.279-0.244-1.768-0.732L58.75,6.036L45.351,19.434
			c-0.976,0.977-2.56,0.977-3.535,0c-0.977-0.976-0.977-2.559,0-3.535L56.982,0.732c0.976-0.977,2.56-0.977,3.535,0l15.167,15.167
			c0.977,0.976,0.977,2.559,0,3.535C75.196,19.922,74.556,20.167,73.917,20.167z"/>
	</g>
</g>
</svg>

<svg xmlns="http://www.w3.org/2000/svg" viewBox="0 0 117.5 64.125" enable-background="new 0 0 117.5 64.125"><g fill="#AC5CA0"><path d="M29.04 64.13c-.64 0-1.28-.25-1.77-.74L14.15 50.26c-.98-.98-.98-2.56 0-3.54.97-.97 2.56-.97 3.53 0L30.8 59.86c1 .97 1 2.56 0 3.53-.48.48-1.12.73-1.76.73zM88.46 64.13c-.64 0-1.28-.25-1.77-.74-1-.98-1-2.57 0-3.54l13.1-13.13c1-.97 2.57-.97 3.55 0s.98 2.56 0 3.54L90.23 63.4c-.5.48-1.13.73-1.77.73zM58.75 63.5c-.66 0-1.3-.26-1.77-.73l-39.3-39.32-13.4 13.4c-1 .98-2.57.98-3.55 0-.97-.98-.97-2.56 0-3.53L15.9 18.15c.98-.98 2.56-.98 3.54 0l39.3 39.32 39.33-39.32c.97-.98 2.56-.98 3.53 0l15.17 15.17c.98.97.98 2.56 0 3.53s-2.56.98-3.54 0l-13.4-13.4-39.3 39.32c-.48.47-1.12.73-1.78.73zM73.92 20.17c-.64 0-1.28-.25-1.77-.74l-13.4-13.4-13.4 13.4c-.98.98-2.56.98-3.53 0-.98-.97-.98-2.55 0-3.53L56.98.73c.98-.98 2.56-.98 3.54 0L75.68 15.9c.98.97.98 2.56 0 3.53-.48.5-1.12.74-1.76.74z"/></g></svg>
